X:1
T:ТУ-СТЕПЪ
T:,,ТУ-СТЕПЪ''
T:Изъ оперетки ,,МОТОРЪ ЛЮБВИ''
T:Муз. И. ЖИЛЬБЕРЪ.
T:Two-Step tanzt man heut.
T:1548
T:1548
C:Муз. И. ЖИЛЬБЕРЪ.
Z:1548
%%score { ( 1 4 ) | ( 2 3 ) }
L:1/8
Q:1/4=90
M:2/4
K:F
V:1 treble nm="Piano" snm="Pno."
V:4 treble 
V:2 treble 
V:3 treble 
V:1
!f! (a/b/ | a)g e(a/b/ | a)g e(a/b/ | a) z e z | dD z!>(! D | z D!>)! z!p! (A/^G/ | A)=G FE | %7
 D3 A/^G/ | Ad^cd | B3 A/B/ | A !^!G2 F | EF !^!G2- | GFEF | D4- | D3 A/^G/ |!p! AGFE | %16
 D !^!D2 (d/^c/ | d)=cBA | !^!G3 (g/^f/ | g)fd!<(! (g/^f/ | g)!<)!ec g/a/ | g[Af][Ge]!>(![Fd] | %22
 [Ec]3!>)! c |!p! c(B/E/ d)[EB_d] | c(B/E/ d)[EB_d] | c(F/A/ E)D | c(F/A/ E)D | %27
!p! !>!C2!<(! EG!<)! | [EBc]!>(![EBd] [EBc]2!>)! |!p! !>!C2!<(! FA | %30
 [FAd]!<)!!>(![FAe] [FAd]2!>)! |!p! c(B/E/ d)[EB_d] | c(B/E/ d)[EB_d] | c(F/A/ E)D | c(F/A/ E)D | %35
!<(! G2!<)! [F^Gd][FGd] |!<(! [FAc]>!<)!d ed | [FA]2 [EG]2 | [A,CF]3 z || %39
[K:Bb]!f! !^![Ff]z/[CEF]/ [CEF][CEG] | [CEA][CEG] !>![CEF]2 ||!p! !^![F,F]2 !^![=E,=E]2 | %42
 [G,G]3 [F,F] | [B,D][F,F] [B,D][F,F] | !^![Dd]3 d | !^!e=B !^!c2- | cGAc | F(F/G/ F)[CEG] | %48
 [CEA][CEG] !>![CEF]2 | !^![F,F]2 !^![=E,=E]2 | [G,G]3 [F,F] | [B,D][F,F] [B,D][F,F] | !^![Dd]3 d | %53
 [Ff]2!<(! [FB]2 | [Gc]2!<)! [Fd]2 | [FB] z!ff! [Ff][Gg] | [Aa][Gg] [Ff]2 ||!f! [Ff]2 [=E=e]2 | %58
 [Gg]3 [Ff] | [Bd][Ff] [Bd][Ff] | [dd']3 [dd'] | [ee'][=B=b] [cc']2- | [cc'][Gg][Aa][Bb] | %63
 [Ff](F/G/ F)G | [CEA][CEG] !>![CEF]2 |!f! [Ff]2 [=E=e]2 | [Gg]3 [Ff] | [Bd][Ff] [Bd][Ff] | %68
 [dd']3 [dd'] | [ff']2 [Bfb]2 | [cgc']2 [dfad']2 | [Bdfb] z !^![Aef] z | !^![Bdfb] z z2 |] %73
V:2
 (A/B/ | A)G E(A/B/ | A)G E z | [A,A] z[K:bass] [A,,^C,G,] z | x [F,A,] z [G,B,] | %5
 x [F,A,] z [F,A,] | E,[G,A,] A,,[G,A,] | D,[F,A,] A,,[F,A,] | D,[F,A,] D,[F,A,] | %9
 G,, !^![G,B,E]2 [G,B,E] | E,[G,A,] A,,[G,A,] | ^C,[G,A,] A,,[G,A,] | E,[G,A,] A,,[G,A,] | %13
 z [F,A,] z [G,B,] | z [F,A,] z [F,A,] | E,[G,A,] A,,[G,A,] | D,[F,A,][F,A,] z | ^F,[A,D] D,[CD] | %18
 G,[B,D][B,D] z | =B,,[F,G,B,] G,,[F,G,B,] | C,[E,G,C] G,,[E,G,C] | D,[F,G,=B,] G,,[F,G,B,] | %22
 [C,G,C]C/C/ CC | G,[B,C] C,[B,C] | G,[B,C] C,[B,C] | F,[A,C] C,[A,C] | F,[A,C] C,[A,C] | %27
 G,,[E,B,] C,[B,C] | G,[B,C] C,[B,C] | F,,[F,A,] C,[A,C] | F,[A,C] C,[A,C] | %31
"_Печатня В. Гроссе вь Москвѣ Б. Спасская ул соб. д." G,[B,C] C,[B,C] | G,[B,C] C,[B,C] | %33
 F,[A,C] C,[A,C] | F,[A,C] C,[A,C] | B,,[D,G,] =B,,[F,^G,] | [C,F,A,] z z2 | [C,C]2 [C,B,]2 | %38
 F,2 !^!F,, z ||[K:Bb] !^![F,,F,]z/A,/ A,G, | F,G, !>!A,2 || B,, z F,, z | B,, z F,, z | %43
 B,, z F,, z | B,,[F,B,D] F,,[F,B,D] | C,[E,F,A,] F,,[E,F,A,] | C,[E,F,A,] F,,[E,F,A,] | %47
 C, !>!A,2 G, | F,G, !>!A,2 | B,, z F,, z | B,, z F,, z | B,, z F,, z | B,,[F,B,D] F,,[F,B,D] | %53
 [B,,D,F,]2 [D,B,]2 | [E,C]2 [F,A,E]2 | [B,D] z [F,,F,][G,,G,] | [A,,A,][G,,G,] [F,,F,]2 || %57
 B,,[F,B,D] F,,[F,B,D] | B,,[F,B,D] F,,[F,B,D] | B,,[F,B,D] F,,[F,B,D] | B,,[F,B,D] F,,[F,B,D] | %61
 C,[E,F,A,] F,,[E,F,A,] | C,[E,F,A,] F,,[E,F,A,] | C, !>!A,2 G, | F,G, A,2 | %65
 B,,[F,B,D] F,,[F,B,D] | B,,[F,B,D] F,,[F,B,D] | B,,[F,B,D] F,,[F,B,D] | B,,[F,B,D] F,,[F,B,D] | %69
 [B,,D,F,]2 [D,,D,]2 | [E,,E,]2 [F,,F,]2 | [B,,B,] z !^![F,C] z | [B,,F,B,] z z2 |] %73
V:3
 x | x4 | x4 | x2[K:bass] x2 | !>!D,2 !>!B,,2 | !>!A,,2 !>!G,,2 | x4 | x4 | x4 | x4 | x4 | x4 | %12
 x4 | !>!D,2 !>!B,,2 | !>!A,,2 !>!G,,2 | x4 | x4 | x4 | x4 | x4 | x4 | x4 | x4 | x4 | x4 | x4 | %26
 x4 | x4 | x4 | x4 | x4 | x4 | x4 | x4 | x4 | x4 | x4 | x4 | x4 ||[K:Bb] x4 | x4 || x4 | x4 | x4 | %44
 x4 | x4 | x4 | x4 | x4 | x4 | x4 | x4 | x4 | x4 | x4 | x4 | x4 || x4 | x4 | x4 | x4 | x4 | x4 | %63
 x4 | x4 | x4 | x4 | x4 | x4 | x4 | x4 | x4 | x4 |] %73
V:4
 x | x4 | x4 | x4 | x4 | x4 | x4 | x4 | x4 | x4 | x4 | x4 | x4 | x4 | x4 | x4 | x4 | x4 | x4 | x4 | %20
 x4 | x4 | x4 | x4 | x4 | x4 | x4 | x4 | x4 | x4 | x4 | x4 | x4 | x4 | x4 | x4 | x4 | x4 | x4 || %39
[K:Bb] x4 | x4 || x [B,D] x [B,D] | x [B,D]2 x | x4 | x z z x | x4 | x4 | x [CE]2 x | x4 | %49
 x [B,D] x [B,D] | x [B,D]2 x | x4 | x z z x | x4 | x4 | x4 | x4 || x [Bd] x [Bd] | x4 | x4 | x4 | %61
 x4 | x4 | x [CE]2 x | x4 | x [Bd] x [Bd] | x4 | x4 | x4 | x4 | x4 | x4 | x4 |] %73

